X:1
T:The Eye of Faith
T:The Eye of Faith
T:William Augustine Ogden
T:J. J.Maxfield, 1891
T:Public Domain Courtesy of the Cyber Hymnal™
T:Public Domain Courtesy of the Cyber Hymnal™
C:William Augustine Ogden
Z:Public Domain
Z:Courtesy of the Cyber Hymnal™
%%score ( 1 2 ) ( 3 4 )
L:1/8
Q:1/4=105
M:4/4
K:C
V:1 treble 
V:2 treble 
V:3 bass 
V:4 bass 
V:1
 (CE) | [EG]3 [EG] [FA][EG][CE][EG] | [Ec]6 [Gc]2 | [Ac]3 [FA] [Ac]2 [FA]2 | [EG]6 [EG]2 | %5
w: 1.~I *|do not ask for earth- ly|store Be-|yond a day’s sup-|ply; I|
w: 2.~I *|care not for the emp- ty|show That|thought- less world- lings|see; I|
w: 3.~What- *|e’er the cross- es mine shall|be, I|will not dare to|shun; I|
w: 4.~And *|when at last, my la- bor|o’er, I|cross the nar- row|sea, Grant,|
 [DG]3 [DF] [DF]2 [FA]2 | [FA]3 [EG] [EG]2 [Ec]2 | [DB]3 [DG] [DB]2 [CA]2 | [B,G]6 [FG]2 | %9
w: on- ly cov- et,|more and more, The|clear and sin- gle|eye, To|
w: crave to do the|best I know, And|leave the rest with|Thee— Well|
w: on- ly ask to|live for Thee, And|that Thy will be|done; Thy|
w: Lord, that on the|o- ther shore My|soul may dwell with|Thee, And|
 [Ec]3 [Ec] [Ec][Gc][FB][Ec] | [Dd]6 [Gd]2 | [Fd]3 [Fd] [Fd][Fd][Ec][DB] | [Ec]6 z2 || %13
w: see my du- ty face to|face, And|trust the Lord for dai- ly|grace.|
w: sa- tis- fied that sweet re-|ward Is|sure to those who trust the|Lord.|
w: will, O Lord, be mine each|day, While|press- ing on my home- ward|way.|
w: learn what here I can- not|know, Why|Thou hast ev- er loved me|so.|
"^Refrain" [CE]2 [CE]>[CE] [CE]2 [DF]2 | [EG]4 [Gc]4 | [Ac]2 [FA]>[GB] [Ac]2 [FA]2 | [EG]6 [EG]2 | %17
w: ||||
w: Then shall my heart keep|sing- ing,|While to the cross I|cling; For|
w: ||||
w: ||||
 [FG]2 [FB]2 [FB]2 [FA]2 | [EG]2 [Ec]2 [Ec]2 [Ec]2 | [Ge]3 [Ec] [Fd]2 [Ec]2 | [Ge]4 [Fd]2 [Gc]2 | %21
w: ||||
w: rest is sweet at|Je- sus’ feet, While|home- ward faith keeps|wing- ing, While|
w: ||||
w: ||||
 [FA]2 [Fc]2 G2 [Ec]2 | [Fd]4 [Ec]2 |] %23
w: ||
w: home- ward faith keeps|wing- ing.|
w: ||
w: ||
V:2
 C2 | x8 | x8 | x8 | x8 | x8 | x8 | x8 | x8 | x8 | x8 | x8 | x8 || x8 | x8 | x8 | x8 | x8 | x8 | %19
 x8 | x8 | x4 G2 x2 | x6 |] %23
V:3
 (E,G,) | [C,C]3 [C,C] [C,C][C,C][C,G,][C,C] | [C,G,]6 [E,C]2 | [F,C]3 [F,C] [F,C]2 [F,C]2 | %4
w: ~ *|~ ~ ~ ~ ~ ~|~ ~|~ ~ ~ ~|
 [C,C]6 [C,C]2 | [G,,B,]3 [G,,B,] [G,,B,]2 [G,,B,]2 | [C,C]3 [C,C] [C,C]2 [C,G,]2 | %7
w: ~ ~|~ ~ ~ ~|~ ~ ~ ~|
 [D,G,]3 [D,B,] [D,G,]2 [D,^F,]2 | [G,,G,]6 [G,B,]2 | [C,C]3 [C,G,] [C,G,][E,G,][D,G,][C,G,] | %10
w: ~ ~ ~ ~|~ ~|~ ~ ~ ~ ~ ~|
 [G,B,]6 [G,B,]2 | [G,B,]3 [G,B,] [G,B,][G,B,]G,G, | [C,G,]6 z2 || %13
w: ~ ~|~ ~ ~ ~ ~ ~|~|
 [C,G,]2 [C,G,]>[C,G,] [C,G,]2 [C,G,]2 | [C,C]2 [C,C]2 [E,C]2 [E,C]2 | %15
w: ~ ~ ~ ~ ~|sing- ing, sing- ing|
 [F,C]2 [F,C]>[F,C] [F,C]2 [F,C]2 | [C,C]2 [C,C]2 [C,C]2 [C,C]2 | %17
w: ~ ~ ~ ~ ~|cling, I cling; *|
 [G,,B,]2 [G,,D]2 [G,,D]2 [G,,B,]2 | [C,C]2 [C,G,]2 [C,G,]2 [C,G,]2 | [C,C]3 [C,C] [C,C]2 [C,C]2 | %20
w: |||
 [C,C]4 [D,B,]2 [E,C]2 | [F,C]2 [F,A,]2 [E,C]2 [C,C]2 | [G,,B,]4 [C,C]2 |] %23
w: |||
V:4
 C,2 | x8 | x8 | x8 | x8 | x8 | x8 | x8 | x8 | x8 | x8 | x6 G,G, | x8 || x8 | x8 | x8 | x8 | x8 | %18
 x8 | x8 | x8 | x8 | x6 |] %23

